X: 225
T:Push About The Jorum. JaW.224
M:2/4
Q:70
C:4 stave book starts
S:James Winder Ms, Lancashire, 1835-41
R:Country Dance
O:England
A:Wyresdale,Lancashire
H:1/8
Z:vmp.Chris Partington, Aug 2004
K:G
g|dBAG|FAAc|BGBd|g2fe|dGBG|FAAc|EGFA|G2G:|!
d|ggfg|afdd|ggfg|a2dd|ggfg|agfe|e/f/g f/g/a|g3f/e/|!
dGBG|FAAc|BGBd|g2fe|dGBG|FAAc|EGFA|G2G|]
